!! 00000] TT[WS
!!!OTL: Hui guannan
!!!ARE: Asia, China, Shanxi Dingxiang
!! Ethnic Group: Han
!! WI, 91
!!!SCT: J0108
!!!YEM: Copyright 1995, estate of Helmut Schaffrath.
**kern
*ICvox
*Ivox
!! Mixed meters:  2/4; 3/4
*M2/4
*k[]
*C:
{16d
16d
16d
16e
16e
16c
16A
16c
=1
4d
16e
16d
16c
16B
=2
4A
16A
16A
16A
16c
=3
*M3/4
16a
16a
8f#
2g}
=4
*M2/4
{8A
8A
16c
16d
16c
16A
=5
16G
16A
8c
16d
16c
16A
16G
=6
16E
16E
16E
16G
16E
16D
8C
=7
2D}
==
!!!AGN: Xiaodiao. Qingge, Aisu
!!!ONB: ESAC (Essen Associative Code) Database: CHINA
!!!AMT: irregular
!!!AIN: vox
!!!EED: Helmut Schaffrath
!!!EEV: 1.0
*-
